X: 1
T: The Dingle Regatta
R: slide
M: 12/8
L: 1/8
K: Dmaj
|:dcd e2d BAB d2B|A3 AGA B2A G2A|dcd e2d BAB d2B|A3 B2A G3 G2A:|
|:d3 def g3 gfg|a3 aga b2ag2e|d3 def g3 gfg|a2gf2e def g3:|
|:g3 d3 B3 G3|FGA DEF G2A Bde|g3 d3 B3 G3|FGA DEF G6:|


Tune 23	Setting 25997

